X: 1
T: Will Ye No' Come Back Again
O: Trad
R: air
Z: John Chambers <jc:trillian.mit.edu>
M: C
L: 1/4
K: G
[|"G"G>A BG | "C"E<G "G"D2 | "G"d>e "Bm"dB | "A7"B/A/G "D"A2 \
| "G"G>A BG | "C"E<G "G"D2 | "G"d>e "Bm"dB | "D7"A>G "G"G2 |]
[| "G"Bd dd |    Bd "G7"d2 | "C"g>f "Bm"ed | "Am"e/d/c/B/ "D7"A2 \
| "G"B<B AG | "C"E<G "G"D2 | "C"e>d "G"dB  | "D7"A>G "G"G2 |]
